svgs/sharp-regular/equals.svg

<svg xmlns="http://www.w3.org/2000/svg" viewBox="0 0 448 512"><!--! Font Awesome Pro 6.6.0 by @fontawesome - https://fontawesome.com License - https://fontawesome.com/license (Commercial License) Copyright 2024 Fonticons, Inc. --><path d="M40 144l-24 0 0 48 24 0 368 0 24 0 0-48-24 0L40 144zm0 176l-24 0 0 48 24 0 368 0 24 0 0-48-24 0L40 320z"/></svg>

<svg xmlns="http://www.w3.org/2000/svg" viewBox="0 0 448 512"><!--! Font Awesome Pro 6.4.0 by @fontawesome - https://fontawesome.com License - https://fontawesome.com/license (Commercial License) Copyright 2023 Fonticons, Inc. --><path d="M40 144H16v48H40 408h24V144H408 40zm0 176H16v48H40 408h24V320H408 40z"/></svg>
